X:150
T:Whelan's Jig
M:6/8
L:1/8
K:Em
E3 BAF|FEB AFB|E3 BAF|dAF FED|\
E3 BAF|FEB AFA|B3 BAB|dAF FED :|
BAB e3|fed e2 d|BAB g2 e|fdB AFA|\
BAB e3|fed e2 f|gbg faf|edB AFD :|"fine"E6 |>|
